img/icons/svg/logo__icon.svg

<svg width="76" height="20" viewBox="0 0 76 20" fill="none" xmlns="http://www.w3.org/2000/svg">
  <path
    d="M19.4461 19H14.6961L13.3211 15.525H6.47109L5.17109 19H0.521094L7.94609 1.3H12.0961L19.4461 19ZM12.1461 12.1L9.94609 6.025L7.69609 12.1H12.1461ZM27.884 19H23.734V0.099999H27.884V19ZM38.5803 2.575C38.5803 3.20833 38.3469 3.74167 37.8803 4.175C37.4303 4.60833 36.8803 4.825 36.2303 4.825C35.5803 4.825 35.0219 4.60833 34.5553 4.175C34.1053 3.725 33.8803 3.19167 33.8803 2.575C33.8803 1.975 34.1053 1.45 34.5553 0.999999C35.0219 0.549999 35.5803 0.324999 36.2303 0.324999C36.8803 0.324999 37.4303 0.549999 37.8803 0.999999C38.3469 1.43333 38.5803 1.95833 38.5803 2.575ZM38.2803 19H34.1803V6.55H38.2803V19ZM55.7277 7.95C57.0611 9.15 57.7277 10.7417 57.7277 12.725C57.7277 14.7083 57.0611 16.3167 55.7277 17.55C54.3944 18.7833 52.7527 19.4 50.8027 19.4C48.8694 19.4 47.2361 18.7833 45.9027 17.55C44.5694 16.3167 43.9027 14.7083 43.9027 12.725C43.9027 10.7417 44.5694 9.15 45.9027 7.95C47.2361 6.75 48.8694 6.15 50.8027 6.15C52.7527 6.15 54.3944 6.75 55.7277 7.95ZM53.7777 12.725C53.7777 11.875 53.5111 11.1333 52.9777 10.5C52.4444 9.86667 51.7194 9.55 50.8027 9.55C49.8861 9.55 49.1694 9.86667 48.6527 10.5C48.1361 11.1167 47.8777 11.8583 47.8777 12.725C47.8777 13.5917 48.1361 14.35 48.6527 15C49.1861 15.6333 49.9111 15.95 50.8277 15.95C51.7444 15.95 52.4611 15.6333 52.9777 15C53.5111 14.35 53.7777 13.5917 53.7777 12.725ZM75.6236 19H71.4986V12.2C71.4986 10.45 70.882 9.575 69.6486 9.575C68.9486 9.575 68.407 9.83333 68.0236 10.35C67.6403 10.8667 67.4486 11.5 67.4486 12.25V19H63.3236V6.55H67.2986V8.275H67.3486C67.6486 7.69167 68.132 7.2 68.7986 6.8C69.482 6.4 70.2403 6.2 71.0736 6.2C72.6236 6.2 73.7653 6.7 74.4986 7.7C75.2486 8.68333 75.6236 9.88333 75.6236 11.3V19Z"
    fill="white" />
</svg>

<svg width="76" height="20" viewBox="0 0 76 20" fill="none" xmlns="http://www.w3.org/2000/svg"><path d="M19.446 19h-4.75l-1.375-3.475h-6.85L5.171 19H.521L7.946 1.3h4.15l7.35 17.7zm-7.3-6.9l-2.2-6.075-2.25 6.075h4.45zM27.884 19h-4.15V.1h4.15V19zM38.58 2.575c0 .633-.233 1.167-.7 1.6-.45.433-1 .65-1.65.65-.65 0-1.208-.217-1.675-.65-.45-.45-.675-.983-.675-1.6 0-.6.225-1.125.675-1.575A2.328 2.328 0 0136.23.325c.65 0 1.2.225 1.65.675.467.433.7.958.7 1.575zM38.28 19h-4.1V6.55h4.1V19zM55.728 7.95c1.333 1.2 2 2.792 2 4.775 0 1.983-.667 3.592-2 4.825-1.334 1.233-2.975 1.85-4.925 1.85-1.934 0-3.567-.617-4.9-1.85-1.334-1.233-2-2.842-2-4.825s.666-3.575 2-4.775c1.333-1.2 2.966-1.8 4.9-1.8 1.95 0 3.591.6 4.925 1.8zm-1.95 4.775c0-.85-.267-1.592-.8-2.225-.534-.633-1.259-.95-2.175-.95-.917 0-1.634.317-2.15.95-.517.617-.775 1.358-.775 2.225s.258 1.625.775 2.275c.533.633 1.258.95 2.175.95.916 0 1.633-.317 2.15-.95.533-.65.8-1.408.8-2.275zM75.624 19h-4.125v-6.8c0-1.75-.617-2.625-1.85-2.625-.7 0-1.242.258-1.625.775-.384.517-.575 1.15-.575 1.9V19h-4.125V6.55h3.975v1.725h.05c.3-.583.783-1.075 1.45-1.475a4.42 4.42 0 012.275-.6c1.55 0 2.691.5 3.425 1.5.75.983 1.125 2.183 1.125 3.6V19z" fill="#fff"/></svg>
